X: 34899
T: Roche's
R: slide
M: 12/8
K: Dmajor
e|f2e dcBA2FG2B|A2FG2AB2AA2e|f2e dcBA2FG2B|A2F GFED3D2:|
|:E|F2Ad2f~a3agf|~g3gfe~f3fdA|F2Ad2f~a3agf|~g3gfed2fd2:|

